X:4025
T:Marsascala
O:england
R:Reel
N:Dec 93
M:C
C:Andy Hornby
A:Lancaster
K:ADor
Bd|\
eAAG A2EA | GAEA GAcd | eAAB cAeA | BGdG edBd |\
eAAG A2EA | GAEA GAcd |
e2ag efge | dBGB A2 :|\
|: Bd |\
eaag abgb | a2ba aged |
eaab agef | g2af gfed |\
eaag abgb | a2ba agef | g2af gedB | GABG A2 :|
W:Copyright (C) Andy Hornby
